X:18431
T:Waltz,5. TLY.067
M:3/8
L:1/16
S:Wm.Tildesley,Swinton,Lancs.1860s.
R:Waltz
O:England.
A:Lancashire.
H:1860.
Z:Taz Tarry.
K:E_
A2|G-AB2B2|c-de2e2|(F2G2A2)|A2-G2 e2|gfe(dcB)|e2g2b2|!B2c2d2|e4:|
|:g2|b-af2f2|f-dB2B2|b-ge2e2|e2g2b2|!b-af2f2|f-dB2B2|e-de-gf-d|e4:|
|:c2|B3AG2|e2-d2e2|!c2-=B2c2|A4F2|G3AB2|B3AG2|F3EF2|G4B2|!
B3AG2|e2-d2e2|c2-=B2c2|A4F2|G3AB2|B3AG2|F3EF2|E4:|]


